dist/static/img/about/02.svg

<svg width="48" height="48" viewBox="0 0 48 48" fill="none" xmlns="http://www.w3.org/2000/svg">
<g clip-path="url(#clip0_885_894)">
<path d="M28.8536 13.5465C28.5408 13.2337 28.0352 13.2337 27.7224 13.5465L24.228 17.0401C23.9152 16.8905 23.5696 16.8001 23.2 16.8001C22.8304 16.8001 22.4848 16.8905 22.172 17.0409L20.3736 15.2425C20.0608 14.9297 19.5552 14.9297 19.2424 15.2425C18.9296 15.5553 18.9296 16.0609 19.2424 16.3737L21.0408 18.1721C20.8904 18.4849 20.8 18.8305 20.8 19.2001C20.8 20.5233 21.8768 21.6001 23.2 21.6001C24.5232 21.6001 25.6 20.5233 25.6 19.2001C25.6 18.8305 25.5096 18.4849 25.3592 18.1721L28.8536 14.6785C29.1664 14.3657 29.1664 13.8593 28.8536 13.5465ZM23.2 20.0001C22.7584 20.0001 22.4 19.6409 22.4 19.2001C22.4 18.7593 22.7584 18.4001 23.2 18.4001C23.6416 18.4001 24 18.7593 24 19.2001C24 19.6409 23.6416 20.0001 23.2 20.0001Z" fill="white"/>
<path d="M20.0002 24.8C19.5578 24.8 19.2002 25.1584 19.2002 25.6C19.2002 26.0416 19.5578 26.4 20.0002 26.4H27.2002C27.6426 26.4 28.0002 26.0416 28.0002 25.6C28.0002 25.1584 27.6426 24.8 27.2002 24.8H20.0002Z" fill="white"/>
<path d="M18.4 28C18.1279 27.9734 17.3064 28 17.3064 28C15.2472 28 13.252 28.604 11.5376 29.7472C11.468 29.7936 11.4024 29.8464 11.3336 29.8936C8.6728 26.9464 7.2 23.1752 7.2 19.2C7.2 16.024 8.1264 12.96 9.8808 10.3408C10.1272 9.9736 10.0288 9.4768 9.6616 9.2312C9.2944 8.9864 8.7984 9.084 8.5512 9.4512C6.62 12.3344 5.6 15.7056 5.6 19.2C5.6 23.5232 7.184 27.6248 10.0464 30.8504C7.496 32.8944 5.4424 35.4984 4.0656 38.4824L1.888 43.2H0.8C0.3576 43.2 0 43.5584 0 44V47.2C0 47.6416 0.3576 48 0.8 48C1.2424 48 1.6 47.6416 1.6 47.2V44.8H15.7752L15.2248 47.0056C15.1168 47.4344 15.3776 47.8688 15.8072 47.976C15.872 47.9928 15.9376 48 16.0016 48C16.36 48 16.6856 47.7576 16.7768 47.3944L17.5768 44.1944C17.6368 43.9552 17.5832 43.7024 17.4312 43.508C17.2792 43.3136 17.0464 43.2 16.8 43.2H15.8128L17.0192 41.1888C17.1632 40.9488 17.4264 40.8 17.7056 40.8H20.8C21.2424 40.8 21.6 40.4416 21.6 40C21.6 39.5584 21.2424 39.2 20.8 39.2H17.7064C16.8688 39.2 16.08 39.6464 15.648 40.3656L13.9472 43.2H3.6504L5.5184 39.1528C7.0312 35.8736 9.4192 33.0816 12.4248 31.0784C13.876 30.1112 15.5632 29.6 17.3064 29.6H18.3216L24.2648 30.7888C24.584 30.8528 24.8592 31.0368 25.04 31.3072C25.22 31.5776 25.2848 31.9024 25.2208 32.2216C25.156 32.5456 24.968 32.8232 24.6912 33.0032C24.416 33.1832 24.0864 33.2424 23.7624 33.1712L18.5752 32.0184C18.1456 31.9248 17.7168 32.1944 17.6208 32.6256C17.5256 33.0568 17.7976 33.484 18.2288 33.58L23.416 34.7328C23.9632 34.8552 24.52 34.8096 25.0304 34.6136L28.68 35.1896C28.932 35.2288 29.1872 35.1448 29.3672 34.9648L35.3248 29.0072C35.7544 28.5784 36.4424 28.5312 36.9264 28.8928C37.208 29.104 37.38 29.412 37.4112 29.7616C37.4432 30.112 37.3296 30.4464 37.092 30.7048L30.44 37.912C29.6832 38.7312 28.612 39.2 27.4984 39.2H24C23.5576 39.2 23.2 39.5584 23.2 40C23.2 40.4416 23.5576 40.8 24 40.8H27.4984C29.0568 40.8 30.5568 40.1432 31.6136 38.9984L38.2656 31.7912C38.8072 31.2048 39.0768 30.4128 39.004 29.6176C38.952 29.0504 38.7232 28.5192 38.3672 28.0856C39.8904 25.4944 40.7328 22.5624 40.796 19.5728C40.8056 19.1312 40.4544 18.7656 40.0128 18.756C39.5576 18.7672 39.2064 19.0976 39.196 19.5392C39.14 22.2216 38.3904 24.8536 37.0392 27.1872C36.404 26.9888 35.7184 27.0216 35.1056 27.2744C36.6848 24.9488 37.6 22.1576 37.6 19.2C37.6 18.6136 37.5512 18.0208 37.4768 17.428C38.0344 17.5392 38.6104 17.6 39.2 17.6C44.052 17.6 48 13.652 48 8.8C48 7.0696 47.4944 5.392 46.5392 3.9488C46.2944 3.58 45.7984 3.4784 45.4304 3.724C45.0616 3.968 44.9608 4.464 45.2048 4.8328C45.9864 6.0128 46.4 7.3848 46.4 8.8C46.4 12.7696 43.1704 16 39.2 16C35.2296 16 32 12.7696 32 8.8C32 4.8304 35.2296 1.6 39.2 1.6C40.616 1.6 41.9872 2.0136 43.168 2.7952C43.536 3.0376 44.0328 2.9376 44.2768 2.5696C44.5208 2.2016 44.42 1.7048 44.0512 1.4608C42.608 0.5048 40.9304 0 39.2 0C36.152 0 33.4624 1.5584 31.8824 3.92C29.232 2.4064 26.248 1.6 23.2 1.6C18.4456 1.6 13.9928 3.4632 10.6616 6.8464C10.352 7.1616 10.356 7.668 10.6712 7.9776C10.8264 8.1312 11.0296 8.208 11.232 8.208C11.4392 8.208 11.6456 8.128 11.8024 7.9696C14.8296 4.8936 18.8776 3.2 23.2 3.2C25.98 3.2 28.7024 3.9384 31.1184 5.3248C30.9048 5.8192 30.7392 6.3384 30.6192 6.8744C28.3752 5.5152 25.8344 4.8 23.2 4.8C15.26 4.8 8.8 11.26 8.8 19.2C8.8 22.1848 9.712 25.0504 11.436 27.4856C11.592 27.7056 11.8392 27.8232 12.0896 27.8232C12.2488 27.8232 12.4104 27.7752 12.5512 27.676C12.9112 27.4208 12.9976 26.9216 12.7416 26.5608C12.6744 26.4664 12.6168 26.3672 12.5528 26.2712L13.9008 25.4936C14.284 25.2728 14.4152 24.7832 14.1936 24.4008C13.972 24.0176 13.4808 23.8864 13.1008 24.108L11.7416 24.8928C10.9792 23.3704 10.5376 21.7136 10.4312 20.0008H12C12.4424 20.0008 12.8 19.6424 12.8 19.2008C12.8 18.7592 12.4424 18.4008 12 18.4008H10.4408C10.5496 16.6536 11.0072 15.0032 11.7504 13.5136L13.1016 14.2936C13.2264 14.3656 13.364 14.4 13.5 14.4C13.7768 14.4 14.0456 14.2568 14.1936 14C14.4144 13.6168 14.2832 13.128 13.9008 12.9072L12.5432 12.124C13.4872 10.7064 14.7056 9.488 16.1232 8.544L16.9064 9.9008C17.0552 10.1576 17.3232 10.3008 17.6 10.3008C17.736 10.3008 17.8736 10.2664 17.9992 10.1936C18.3824 9.9728 18.5136 9.4832 18.292 9.1008L17.512 7.7504C19.0016 7.008 20.652 6.5504 22.3992 6.4416V8C22.3992 8.4416 22.7568 8.8 23.1992 8.8C23.6416 8.8 23.9992 8.4416 23.9992 8V6.4312C25.7088 6.5376 27.3624 6.9816 28.888 7.7464L28.1064 9.1008C27.8856 9.484 28.0168 9.9728 28.3992 10.1936C28.5248 10.2664 28.6624 10.3008 28.7984 10.3008C29.0752 10.3008 29.344 10.1576 29.492 9.9008L30.268 8.5568C30.3144 8.588 30.3608 8.6176 30.4064 8.6496C30.4064 8.7 30.4 8.7488 30.4 8.8C30.4 12.4376 32.6184 15.5664 35.7736 16.9048C35.8648 17.404 35.9248 17.9024 35.9568 18.4H34.4C33.9576 18.4 33.6 18.7584 33.6 19.2C33.6 19.6416 33.9576 20 34.4 20H35.9648C35.8552 21.7336 35.3952 23.3872 34.6472 24.8848L33.2992 24.1064C32.9168 23.8848 32.4272 24.0168 32.2064 24.3992C31.9856 24.7816 32.1168 25.2712 32.4992 25.492L33.8488 26.2712C32.9088 27.684 31.6928 28.9008 30.2728 29.8496L29.4928 28.4984C29.2712 28.1152 28.78 27.984 28.4 28.2056C28.0168 28.4264 27.8856 28.916 28.1072 29.2984L28.8936 30.6608C28.2272 30.9936 27.5256 31.268 26.796 31.4816C26.7288 31.1064 26.588 30.7456 26.3704 30.4184C25.9528 29.792 25.3168 29.3656 24.5784 29.2184C24.5784 29.2184 19.9669 28.153 18.4 28ZM28.5208 33.548L26.5336 33.2424C26.5424 33.2248 26.5528 33.2088 26.5608 33.1912C27.944 32.86 29.2424 32.3328 30.4296 31.6392L28.5208 33.548Z" fill="white"/>
<path d="M39.1998 6.39995C39.6414 6.39995 39.9998 6.75915 39.9998 7.19995C39.9998 7.64155 40.3574 7.99995 40.7998 7.99995C41.2422 7.99995 41.5998 7.64155 41.5998 7.19995C41.5998 6.15835 40.9286 5.27835 39.9998 4.94715V3.99995C39.9998 3.55835 39.6422 3.19995 39.1998 3.19995C38.7574 3.19995 38.3998 3.55835 38.3998 3.99995V4.94715C37.471 5.27835 36.7998 6.15835 36.7998 7.19995C36.7998 8.52315 37.8766 9.59995 39.1998 9.59995C39.6414 9.59995 39.9998 9.95915 39.9998 10.4C39.9998 10.8408 39.6414 11.2 39.1998 11.2C38.7582 11.2 38.3998 10.8408 38.3998 10.4C38.3998 9.95835 38.0422 9.59995 37.5998 9.59995C37.1574 9.59995 36.7998 9.95835 36.7998 10.4C36.7998 11.4416 37.471 12.3216 38.3998 12.6528V13.6C38.3998 14.0416 38.7574 14.4 39.1998 14.4C39.6422 14.4 39.9998 14.0416 39.9998 13.6V12.6528C40.9286 12.3216 41.5998 11.4416 41.5998 10.4C41.5998 9.07675 40.523 7.99995 39.1998 7.99995C38.7582 7.99995 38.3998 7.64075 38.3998 7.19995C38.3998 6.75915 38.7582 6.39995 39.1998 6.39995Z" fill="white"/>
<path d="M43.4537 6.4457C43.0369 6.5937 42.8193 7.0505 42.9673 7.4665C43.1217 7.9041 43.2001 8.3521 43.2001 8.8001C43.2001 9.2481 43.1217 9.6961 42.9673 10.1337C42.8193 10.5505 43.0377 11.0073 43.4537 11.1545C43.5425 11.1857 43.6329 11.2001 43.7209 11.2001C44.0505 11.2001 44.3593 10.9953 44.4745 10.6665C44.6905 10.0577 44.8001 9.4297 44.8001 8.8001C44.8001 8.1705 44.6905 7.5425 44.4753 6.9337C44.3281 6.5169 43.8729 6.2985 43.4537 6.4457Z" fill="white"/>
<path d="M34.946 6.44553C34.5292 6.29753 34.0708 6.51673 33.9252 6.93273C33.7092 7.54233 33.5996 8.17033 33.5996 8.79993C33.5996 9.42953 33.7092 10.0575 33.9244 10.6663C34.0404 10.9951 34.3492 11.1999 34.6788 11.1999C34.7668 11.1999 34.858 11.1847 34.946 11.1535C35.3628 11.0055 35.5804 10.5487 35.4324 10.1327C35.278 9.69593 35.1996 9.24793 35.1996 8.79993C35.1996 8.35193 35.278 7.90393 35.4324 7.46633C35.5804 7.05033 35.362 6.59353 34.946 6.44553Z" fill="white"/>
</g>
<defs>
<clipPath id="clip0_885_894">
<rect width="48" height="48" fill="white"/>
</clipPath>
</defs>
</svg>

<svg width="48" height="48" viewBox="0 0 48 48" fill="none" xmlns="http://www.w3.org/2000/svg"><g clip-path="url(#clip0_885_894)" fill="#fff"><path d="M28.854 13.546a.8.8 0 00-1.132 0l-3.494 3.494a2.371 2.371 0 00-1.028-.24c-.37 0-.715.09-1.028.24l-1.798-1.797a.8.8 0 10-1.132 1.13l1.799 1.8A2.36 2.36 0 0020.8 19.2c0 1.323 1.077 2.4 2.4 2.4s2.4-1.077 2.4-2.4c0-.37-.09-.715-.24-1.028l3.494-3.494a.8.8 0 000-1.132zM23.2 20a.8.8 0 11.002-1.602A.8.8 0 0123.2 20zM20 24.8a.8.8 0 100 1.6h7.2a.8.8 0 100-1.6H20z"/><path d="M18.4 28c-.272-.027-1.094 0-1.094 0-2.059 0-4.054.604-5.768 1.747-.07.047-.136.1-.204.147C8.673 26.946 7.2 23.175 7.2 19.2c0-3.176.926-6.24 2.68-8.86a.799.799 0 10-1.329-.889A17.454 17.454 0 005.6 19.2c0 4.323 1.584 8.425 4.446 11.65a21.125 21.125 0 00-5.98 7.632L1.888 43.2H.8a.8.8 0 00-.8.8v3.2a.8.8 0 101.6 0v-2.4h14.175l-.55 2.206a.799.799 0 101.552.388l.8-3.2a.798.798 0 00-.777-.994h-.987l1.206-2.011a.805.805 0 01.687-.389H20.8a.8.8 0 100-1.6h-3.094c-.837 0-1.626.446-2.058 1.166l-1.7 2.834H3.65l1.868-4.047a19.53 19.53 0 016.907-8.075 8.773 8.773 0 014.881-1.478h1.016l5.943 1.189a1.213 1.213 0 01.956 1.433 1.207 1.207 0 01-.53.781c-.275.18-.605.24-.929.168l-5.187-1.153a.802.802 0 00-.954.608.801.801 0 00.608.954l5.187 1.153a2.788 2.788 0 001.614-.12l3.65.577a.799.799 0 00.687-.225l5.958-5.958a1.233 1.233 0 011.601-.114c.282.211.454.519.485.869.032.35-.081.684-.319.943l-6.652 7.207a4.014 4.014 0 01-2.942 1.288H24a.8.8 0 100 1.6h3.498a5.616 5.616 0 004.116-1.802l6.652-7.207a2.829 2.829 0 00.738-2.173 2.826 2.826 0 00-.637-1.532 17.546 17.546 0 002.429-8.513.8.8 0 00-.783-.817c-.455.011-.807.342-.817.783a15.944 15.944 0 01-2.157 7.648 2.85 2.85 0 00-1.933.087A14.358 14.358 0 0037.6 19.2c0-.586-.049-1.18-.123-1.772a8.803 8.803 0 001.723.172c4.852 0 8.8-3.948 8.8-8.8 0-1.73-.506-3.408-1.46-4.851a.8.8 0 10-1.334.884A7.164 7.164 0 0146.399 8.8c0 3.97-3.23 7.2-7.2 7.2S32 12.77 32 8.8s3.23-7.2 7.2-7.2c1.416 0 2.787.414 3.968 1.195a.8.8 0 10.883-1.334A8.759 8.759 0 0039.2 0a8.797 8.797 0 00-7.318 3.92A17.497 17.497 0 0023.2 1.6a17.466 17.466 0 00-12.538 5.246.8.8 0 001.14 1.124A15.872 15.872 0 0123.2 3.2a15.9 15.9 0 017.918 2.125 8.694 8.694 0 00-.499 1.55A14.254 14.254 0 0023.2 4.8c-7.94 0-14.4 6.46-14.4 14.4 0 2.985.912 5.85 2.636 8.286a.8.8 0 101.306-.925c-.068-.095-.125-.194-.19-.29l1.349-.777a.799.799 0 10-.8-1.386l-1.36.785A12.647 12.647 0 0110.432 20H12a.8.8 0 100-1.6h-1.56a12.684 12.684 0 011.31-4.887l1.352.78a.799.799 0 10.8-1.386l-1.359-.784a12.883 12.883 0 013.58-3.58l.783 1.357a.8.8 0 101.386-.8l-.78-1.35c1.49-.743 3.14-1.2 4.887-1.31V8A.8.8 0 1024 8V6.431c1.71.107 3.363.55 4.889 1.315l-.782 1.355a.8.8 0 001.386.8l.776-1.344c.046.031.093.06.138.093 0 .05-.006.099-.006.15 0 3.638 2.218 6.766 5.374 8.105.09.499.15.997.183 1.495H34.4a.8.8 0 100 1.6h1.565a12.714 12.714 0 01-1.318 4.885l-1.348-.779a.8.8 0 10-.8 1.386l1.35.78a12.905 12.905 0 01-3.576 3.578l-.78-1.352a.8.8 0 10-1.386.8l.787 1.363c-.667.333-1.368.607-2.098.82a2.806 2.806 0 00-2.218-2.263S19.967 28.153 18.4 28zm10.12 5.548l-1.986-.306c.008-.017.019-.033.027-.05a14.226 14.226 0 003.869-1.553l-1.91 1.909z"/><path d="M39.2 6.4a.8.8 0 01.8.8.8.8 0 101.6 0A2.397 2.397 0 0040 4.947V4a.8.8 0 10-1.6 0v.947A2.397 2.397 0 0036.8 7.2c0 1.323 1.077 2.4 2.4 2.4a.8.8 0 11-.8.8.8.8 0 10-1.6 0c0 1.042.671 1.922 1.6 2.253v.947a.8.8 0 101.6 0v-.947a2.397 2.397 0 001.6-2.253c0-1.323-1.077-2.4-2.4-2.4a.8.8 0 010-1.6zm4.254.046a.799.799 0 00-.487 1.02c.155.438.233.886.233 1.334 0 .448-.078.896-.233 1.334a.799.799 0 101.508.532A5.57 5.57 0 0044.8 8.8c0-.63-.11-1.258-.325-1.866a.8.8 0 00-1.021-.488zm-8.508 0a.799.799 0 00-1.02.487A5.578 5.578 0 0033.6 8.8c0 .63.11 1.257.324 1.866a.8.8 0 101.508-.533A3.99 3.99 0 0135.2 8.8c0-.448.078-.896.232-1.334a.8.8 0 00-.486-1.02z"/></g><defs><clipPath id="clip0_885_894"><path fill="#fff" d="M0 0h48v48H0z"/></clipPath></defs></svg>
